libs/ui/packages/crypto-icons/src/svg/PLANE.svg

<svg width="24" height="24" viewBox="0 0 24 24" fill="none" xmlns="http://www.w3.org/2000/svg">
<path fill-rule="evenodd" clip-rule="evenodd" d="M20.9662 5.84717L3.09133 9.51811C2.88745 9.55998 2.73083 9.72377 2.69813 9.92932C2.66542 10.1349 2.76347 10.3392 2.94428 10.4423L7.8778 13.2548L8.77202 18.1615C8.81379 18.3908 9.00835 18.5607 9.24111 18.5714C9.3552 18.5766 9.46365 18.5428 9.55193 18.4806C9.55185 18.4807 9.55201 18.4805 9.55193 18.4806L12.8394 16.1639L16.3193 18.6242C16.4458 18.7136 16.6066 18.7393 16.7547 18.6939C16.9028 18.6484 17.0215 18.5368 17.076 18.3918L21.539 6.51433C21.5393 6.51347 21.5396 6.51262 21.54 6.51176M16.3677 17.4337L20.0315 7.68318L11.305 13.8489L13.1294 15.1442L16.3677 17.4337ZM14.8421 10.1253L8.88609 13.2099L9.36575 15.8419L9.95757 13.7162C9.98779 13.6055 10.0556 13.5072 10.1514 13.4395L14.8421 10.1253ZM10.1215 16.8559L11.9741 15.5504L10.7307 14.6676L10.1215 16.8559ZM8.33938 12.3669L17.6369 7.55176L4.59234 10.2307L8.33938 12.3669Z" fill="white"/>
</svg>

<svg xmlns="http://www.w3.org/2000/svg" width="24" height="24" viewBox="0 0 24 24" fill="none"><path fill="#fff" fill-rule="evenodd" d="M20.966 5.847 3.091 9.518a.5.5 0 0 0-.147.924l4.934 2.813.894 4.906a.5.5 0 0 0 .78.32l3.287-2.317 3.48 2.46a.5.5 0 0 0 .757-.232l4.463-11.878.001-.002m-5.172 10.922 3.664-9.75-8.727 6.165 1.824 1.295zm-1.526-7.309L8.886 13.21l.48 2.632.592-2.126a.5.5 0 0 1 .193-.276zm-4.72 6.73 1.852-1.305-1.243-.882zm-1.783-4.488 9.298-4.815L4.592 10.23z" clip-rule="evenodd"/></svg>
